React/src/assets/images/frontend/eslint.svg

<svg width="130" height="130" viewBox="0 0 130 130" fill="none" xmlns="http://www.w3.org/2000/svg">
<path d="M42.2406 52.3728L63.9497 39.8391C64.493 39.5253 65.1627 39.5253 65.7059 39.8391L87.4155 52.3728C87.9584 52.6865 88.2936 53.2661 88.2936 53.8936V78.961C88.2936 79.5881 87.9584 80.1681 87.4155 80.4824L65.7059 93.016C65.1627 93.3298 64.493 93.3298 63.9497 93.016L42.2406 80.4824C41.6973 80.1686 41.3625 79.5886 41.3625 78.961V53.8936C41.3629 53.2661 41.6977 52.6865 42.2406 52.3728" fill="#7986CB"/>
<path d="M121.274 63.7912L95.3355 18.6669C94.3933 17.0353 92.6528 15.8318 90.7688 15.8318H38.8895C37.0051 15.8318 35.2642 17.0353 34.322 18.6669L8.38365 63.6926C7.44145 65.3247 7.44145 67.3843 8.38365 69.0164L34.322 113.772C35.2642 115.403 37.0051 116.238 38.8895 116.238H90.7688C92.6528 116.238 94.3937 115.428 95.3355 113.796L121.274 68.968C122.217 67.3368 122.217 65.4237 121.274 63.7921L121.274 63.7912ZM99.7959 85.4914C99.7959 86.1548 99.3965 86.7685 98.8214 87.1006L65.7817 106.163C65.207 106.495 64.4872 106.495 63.9125 106.163L30.8472 87.1006C30.2726 86.7685 29.8705 86.1553 29.8705 85.4914V47.3664C29.8705 46.7025 30.2667 46.0893 30.8418 45.7572L63.8802 26.6949C64.4549 26.3627 65.1739 26.3627 65.7485 26.6949L98.8161 45.7572C99.3912 46.0893 99.7959 46.7025 99.7959 47.3664V85.4914Z" fill="#3F51B5"/>
</svg>

<svg width="130" height="130" fill="none" xmlns="http://www.w3.org/2000/svg"><path d="M42.24 52.373l21.71-12.534a1.756 1.756 0 011.756 0l21.71 12.534c.542.314.878.893.878 1.52v25.068a1.76 1.76 0 01-.879 1.521l-21.71 12.534a1.756 1.756 0 01-1.755 0L42.24 80.482a1.757 1.757 0 01-.878-1.521V53.894c0-.628.336-1.207.879-1.521" fill="#7986CB"/><path d="M121.274 63.791L95.335 18.667c-.942-1.632-2.682-2.835-4.566-2.835h-51.88c-1.884 0-3.625 1.203-4.567 2.835L8.384 63.693a5.367 5.367 0 000 5.323l25.938 44.756c.942 1.631 2.683 2.466 4.567 2.466h51.88c1.884 0 3.625-.81 4.566-2.442l25.939-44.828a5.089 5.089 0 000-5.176zm-21.478 21.7c0 .664-.4 1.278-.975 1.61l-33.04 19.062a1.878 1.878 0 01-1.869 0L30.848 87.101c-.574-.332-.977-.946-.977-1.61V47.366c0-.663.397-1.277.972-1.609L63.88 26.695a1.876 1.876 0 011.869 0l33.067 19.062c.575.332.98.946.98 1.61V85.49z" fill="#3F51B5"/></svg>
